src/assets/billing/mastercard.svg

<svg width="34" height="17" viewBox="0 0 34 17" fill="none" xmlns="http://www.w3.org/2000/svg">
<rect width="34" height="17" fill="black"/>
<mask id="mask0_72_656" style="mask-type:luminance" maskUnits="userSpaceOnUse" x="9" y="13" width="18" height="3">
<path fill-rule="evenodd" clip-rule="evenodd" d="M9.91162 15.5238H26.4338V13.3555H9.91162V15.5238Z" fill="white"/>
</mask>
<g mask="url(#mask0_72_656)">
<path fill-rule="evenodd" clip-rule="evenodd" d="M24.5918 14.699C24.5918 14.4185 24.7643 14.194 25.0429 14.194C25.3093 14.194 25.4849 14.4091 25.4849 14.699C25.4849 14.9889 25.3093 15.204 25.0429 15.204C24.7643 15.204 24.5918 14.9795 24.5918 14.699ZM25.7631 14.699V13.3555H25.4725V14.1348C25.3726 14.0008 25.2091 13.9166 25.0032 13.9166C24.5976 13.9166 24.2887 14.244 24.2887 14.699C24.2887 15.1542 24.5976 15.4814 25.0032 15.4814C25.2091 15.4814 25.3726 15.3972 25.4725 15.2632V15.4441H25.7631V14.699ZM21.67 14.699C21.67 14.4185 21.8426 14.194 22.121 14.194C22.3874 14.194 22.5631 14.4091 22.5631 14.699C22.5631 14.9889 22.3874 15.204 22.121 15.204C21.8426 15.204 21.67 14.9795 21.67 14.699ZM22.8417 14.699V13.9539H22.5511V14.1348C22.4512 14.0008 22.2878 13.9166 22.0818 13.9166C21.6762 13.9166 21.3673 14.244 21.3673 14.699C21.3673 15.1542 21.6762 15.4815 22.0818 15.4815C22.2878 15.4815 22.4512 15.3972 22.5511 15.2632V15.4441H22.8417V14.699ZM26.2627 15.3323V15.369H26.2955C26.3029 15.369 26.309 15.3675 26.3135 15.3644C26.3179 15.3614 26.3201 15.3567 26.3201 15.3505C26.3201 15.3444 26.3179 15.3399 26.3135 15.3368C26.309 15.3339 26.3029 15.3323 26.2955 15.3323H26.2627ZM26.296 15.3066C26.3131 15.3066 26.3264 15.3105 26.3356 15.3185C26.3449 15.3262 26.3496 15.337 26.3496 15.3505C26.3496 15.3619 26.3458 15.3712 26.3385 15.3785C26.3311 15.3859 26.3205 15.3905 26.3069 15.3921L26.3506 15.4439H26.3164L26.2759 15.3926H26.2629V15.4439H26.2345V15.3066H26.296ZM26.2876 15.4911C26.3032 15.4911 26.3176 15.4881 26.331 15.4821C26.3443 15.476 26.3561 15.4677 26.3661 15.4575C26.3762 15.447 26.3841 15.4349 26.39 15.4207C26.3957 15.4067 26.3986 15.3918 26.3986 15.3759C26.3986 15.3599 26.3957 15.3449 26.39 15.3309C26.3841 15.3169 26.3762 15.3048 26.3661 15.2943C26.3561 15.2839 26.3443 15.2758 26.331 15.2699C26.3176 15.2638 26.3032 15.2608 26.2876 15.2608C26.2719 15.2608 26.2571 15.2638 26.2435 15.2699C26.2297 15.2758 26.2178 15.2839 26.2076 15.2943C26.1977 15.3048 26.1897 15.3169 26.1839 15.3309C26.1782 15.3449 26.1753 15.3599 26.1753 15.3759C26.1753 15.3918 26.1782 15.4067 26.1839 15.4207C26.1897 15.4349 26.1977 15.447 26.2076 15.4575C26.2178 15.4677 26.2297 15.476 26.2435 15.4821C26.2571 15.4881 26.2719 15.4911 26.2876 15.4911ZM26.2876 15.228C26.3079 15.228 26.3268 15.2319 26.3445 15.2395C26.3621 15.2473 26.3777 15.2579 26.391 15.2713C26.4042 15.2847 26.4146 15.3004 26.4223 15.3185C26.4299 15.3364 26.4338 15.3555 26.4338 15.3759C26.4338 15.3961 26.4299 15.4153 26.4223 15.4332C26.4146 15.4511 26.4042 15.4667 26.391 15.4801C26.3777 15.4934 26.3621 15.5042 26.3445 15.512C26.3268 15.5199 26.3079 15.5238 26.2876 15.5238C26.2669 15.5238 26.2477 15.5199 26.2297 15.512C26.2117 15.5042 26.1961 15.4934 26.1831 15.4801C26.1698 15.4667 26.1596 15.4511 26.1518 15.4332C26.1443 15.4153 26.1405 15.3961 26.1405 15.3759C26.1405 15.3555 26.1443 15.3364 26.1518 15.3185C26.1596 15.3004 26.1698 15.2847 26.1831 15.2713C26.1961 15.2579 26.2117 15.2473 26.2297 15.2395C26.2477 15.2319 26.2669 15.228 26.2876 15.228ZM23.9558 13.9166C23.7742 13.9166 23.6439 14.0039 23.5623 14.1348V13.9539H23.2745V15.4441H23.5653V14.6055C23.5653 14.3592 23.6803 14.2002 23.8861 14.2002C23.9497 14.2002 24.0163 14.2096 24.0829 14.2376L24.1799 13.9571C24.1102 13.929 24.0193 13.9166 23.9558 13.9166ZM12.7845 14.699C12.7845 14.4185 12.9572 14.194 13.2357 14.194C13.5021 14.194 13.6778 14.4091 13.6778 14.699C13.6778 14.9889 13.5021 15.204 13.2357 15.204C12.9572 15.204 12.7845 14.9795 12.7845 14.699ZM13.9562 14.699V13.9539H13.6655V14.1348C13.5657 14.0008 13.4021 13.9166 13.1963 13.9166C12.7907 13.9166 12.4818 14.244 12.4818 14.699C12.4818 15.1542 12.7907 15.4815 13.1963 15.4815C13.4021 15.4815 13.5657 15.3972 13.6655 15.2632V15.4441H13.9562V14.699ZM17.8737 14.194C18.0886 14.194 18.234 14.3374 18.2552 14.5712H17.474C17.5014 14.3529 17.6406 14.194 17.8737 14.194ZM17.8796 13.9166C17.4556 13.9166 17.165 14.2314 17.165 14.6959C17.165 15.1698 17.4679 15.4815 17.9007 15.4815C18.1187 15.4815 18.3185 15.4254 18.4941 15.2725L18.3396 15.0513C18.2185 15.1511 18.0642 15.2071 17.9189 15.2071C17.716 15.2071 17.5102 15.0887 17.4738 14.8206H18.5546C18.5576 14.7801 18.5607 14.7395 18.5607 14.6959C18.5576 14.2314 18.2852 13.9166 17.8796 13.9166ZM19.9142 14.699C19.9142 15.1511 20.2078 15.4815 20.6741 15.4815C20.8921 15.4815 21.0374 15.4316 21.1948 15.3038L21.0434 15.07C20.9253 15.1573 20.8012 15.204 20.665 15.204C20.4137 15.2009 20.2169 14.9982 20.2169 14.699C20.2169 14.3998 20.4137 14.1971 20.665 14.194C20.8012 14.194 20.9253 14.2407 21.0434 14.328L21.1948 14.0942C21.0374 13.9664 20.8921 13.9166 20.6741 13.9166C20.2078 13.9166 19.9142 14.2471 19.9142 14.699ZM15.5244 14.0724C15.373 13.9695 15.1641 13.9166 14.934 13.9166C14.5678 13.9166 14.3437 14.0942 14.3437 14.3905C14.3437 14.6335 14.5072 14.7801 14.8312 14.8268L14.9795 14.8486C15.152 14.8735 15.2459 14.936 15.2459 15.02C15.2459 15.1354 15.1187 15.2103 14.9038 15.2103C14.6767 15.2103 14.5283 15.1385 14.4225 15.0544L14.274 15.2883C14.489 15.4503 14.7464 15.4815 14.9007 15.4815C15.3186 15.4815 15.5486 15.282 15.5486 14.9982C15.5486 14.7364 15.373 14.6023 15.0551 14.5556L14.9068 14.5338C14.7706 14.5152 14.6495 14.4714 14.6495 14.3718C14.6495 14.2627 14.7645 14.1878 14.937 14.1878C15.1218 14.1878 15.3003 14.2595 15.3882 14.3156L15.5244 14.0724ZM19.5844 13.9166C19.4029 13.9166 19.2727 14.0039 19.1909 14.1348V13.9539H18.9033V15.4441H19.1939V14.6055C19.1939 14.3592 19.309 14.2002 19.5149 14.2002C19.5784 14.2002 19.6451 14.2096 19.7116 14.2376L19.8085 13.9571C19.7389 13.929 19.6481 13.9166 19.5844 13.9166ZM16.8988 13.9539H16.3721V13.502H16.0784V13.9539H15.7726V14.2251H16.0784V14.9297C16.0784 15.2756 16.1965 15.4815 16.5687 15.4815C16.705 15.4815 16.8625 15.4379 16.9624 15.3661L16.8716 15.1011C16.7777 15.1573 16.6747 15.1854 16.5931 15.1854C16.4355 15.1854 16.3721 15.0856 16.3721 14.936V14.2251H16.8988V13.9539ZM12.1822 15.4441V14.5057C12.1822 14.1535 11.9763 13.9197 11.6251 13.9166C11.4405 13.9135 11.2497 13.9726 11.1165 14.1815C11.0165 14.0164 10.8591 13.9166 10.6381 13.9166C10.4837 13.9166 10.3203 13.9602 10.2022 14.1348V13.9539H9.91162V15.4441H10.2052V14.5899C10.2052 14.3311 10.3566 14.194 10.5716 14.194C10.7804 14.194 10.8984 14.3343 10.8984 14.5868V15.4441H11.1922V14.5899C11.1922 14.3311 11.3496 14.194 11.5585 14.194C11.7735 14.194 11.8884 14.3343 11.8884 14.5868V15.4441H12.1822Z" fill="white"/>
</g>
<mask id="mask1_72_656" style="mask-type:luminance" maskUnits="userSpaceOnUse" x="9" y="1" width="18" height="15">
<path fill-rule="evenodd" clip-rule="evenodd" d="M9 15.5238H26.6121V1.41672H9V15.5238Z" fill="white"/>
</mask>
<g mask="url(#mask1_72_656)">
<path fill-rule="evenodd" clip-rule="evenodd" d="M15.1865 11.4273H20.426V2.61497H15.1865V11.4273Z" fill="#FF5F00"/>
<path fill-rule="evenodd" clip-rule="evenodd" d="M15.7272 7.02081C15.7272 5.23301 16.5401 3.64089 17.806 2.61466C16.8802 1.86414 15.7121 1.41641 14.4424 1.41641C11.4366 1.41641 9 3.92562 9 7.02081C9 10.116 11.4366 12.6252 14.4424 12.6252C15.7121 12.6252 16.8802 12.1775 17.806 11.427C16.5401 10.4007 15.7272 8.80861 15.7272 7.02081Z" fill="#EB001B"/>
<path fill-rule="evenodd" clip-rule="evenodd" d="M26.4424 10.5488V10.2764H26.3872L26.3237 10.4638L26.2604 10.2764H26.2052V10.5488H26.2441V10.3433L26.3036 10.5205H26.344L26.4034 10.3429V10.5488H26.4424ZM26.093 10.5488V10.3228H26.1638V10.2768H25.9839V10.3228H26.0545V10.5488H26.093Z" fill="#F79E1B"/>
<path fill-rule="evenodd" clip-rule="evenodd" d="M26.6122 7.02105C26.6122 10.1162 24.1755 12.6254 21.1698 12.6254C19.9001 12.6254 18.7319 12.1777 17.8062 11.4272C19.0721 10.401 19.885 8.80885 19.885 7.02105C19.885 5.23325 19.0721 3.64113 17.8062 2.61491C18.7319 1.86439 19.9001 1.41666 21.1698 1.41666C24.1755 1.41666 26.6122 3.92587 26.6122 7.02105Z" fill="#F79E1B"/>
</g>
</svg>

<svg xmlns="http://www.w3.org/2000/svg" width="34" height="17" fill="none">
    <path fill="#000" d="M0 0h34v17H0z" />
    <mask id="a" width="18" height="3" x="9" y="13" maskUnits="userSpaceOnUse"
        style="mask-type:luminance">
        <path fill="#fff" fill-rule="evenodd" d="M9.91 15.52h16.52v-2.16H9.91v2.16Z"
            clip-rule="evenodd" />
    </mask>
    <g mask="url(#a)">
        <path fill="#fff" fill-rule="evenodd"
            d="M24.6 14.7c0-.28.16-.5.44-.5.27 0 .44.2.44.5 0 .29-.17.5-.44.5-.28 0-.45-.22-.45-.5Zm1.16 0v-1.34h-.29v.77a.57.57 0 0 0-.47-.21c-.4 0-.71.32-.71.78 0 .45.3.78.71.78.2 0 .37-.08.47-.22v.18h.3v-.74Zm-4.09 0c0-.28.17-.5.45-.5.27 0 .44.2.44.5 0 .29-.17.5-.44.5-.28 0-.45-.22-.45-.5Zm1.17 0v-.75h-.29v.18a.57.57 0 0 0-.47-.21c-.4 0-.71.32-.71.78 0 .45.3.78.71.78.2 0 .37-.08.47-.22v.18h.3v-.74Zm3.42.63v.04h.05l.01-.02v-.01h-.06Zm.04-.02h.04l.01.04-.01.03-.03.01.04.05h-.03l-.04-.05h-.02v.05h-.03v-.13h.07Zm-.01.18a.1.1 0 0 0 .08-.03.12.12 0 0 0 .02-.13.11.11 0 0 0-.2 0 .12.12 0 0 0 0 .1s0 .02.02.03l.03.02a.1.1 0 0 0 .05.01Zm0-.26a.14.14 0 0 1 .1.04.15.15 0 0 1 .03.16.15.15 0 0 1-.08.08.14.14 0 0 1-.16-.03.15.15 0 0 1-.04-.1.15.15 0 0 1 .15-.15Zm-2.33-1.31a.44.44 0 0 0-.4.21v-.18h-.29v1.5h.3v-.84c0-.25.11-.41.32-.41a.5.5 0 0 1 .2.04l.09-.28a.66.66 0 0 0-.22-.04Zm-11.18.78c0-.28.18-.5.46-.5.26 0 .44.2.44.5 0 .29-.18.5-.44.5-.28 0-.46-.22-.46-.5Zm1.18 0v-.75h-.3v.18a.57.57 0 0 0-.46-.21c-.4 0-.72.32-.72.78 0 .45.31.78.72.78.2 0 .37-.08.47-.22v.18h.29v-.74Zm3.91-.5c.22 0 .36.14.39.37h-.79c.03-.22.17-.38.4-.38Zm.01-.28c-.42 0-.71.31-.71.78 0 .47.3.78.73.78.22 0 .42-.05.6-.2l-.16-.23a.68.68 0 0 1-.42.16c-.2 0-.41-.12-.45-.39h1.08l.01-.12c0-.47-.27-.78-.68-.78Zm2.03.78c0 .45.3.78.76.78.22 0 .37-.05.52-.18l-.15-.23a.62.62 0 0 1-.38.13c-.25 0-.44-.2-.44-.5s.2-.5.45-.5c.13 0 .26.04.37.13l.15-.24a.74.74 0 0 0-.52-.17c-.46 0-.76.33-.76.78Zm-4.39-.63c-.15-.1-.36-.15-.59-.15-.36 0-.59.17-.59.47 0 .24.17.39.5.44l.14.02c.17.02.27.09.27.17 0 .12-.13.19-.35.19a.74.74 0 0 1-.48-.16l-.15.24c.22.16.48.2.63.2.42 0 .65-.2.65-.5 0-.25-.18-.39-.5-.43l-.14-.03c-.14-.01-.26-.06-.26-.16s.11-.18.29-.18.36.07.45.13l.13-.25Zm4.06-.15a.44.44 0 0 0-.39.21v-.18h-.29v1.5h.3v-.84c0-.25.1-.41.31-.41a.5.5 0 0 1 .2.04l.1-.28a.65.65 0 0 0-.23-.04Zm-2.68.03h-.53v-.45h-.3v.45h-.3v.28h.3v.7c0 .35.13.55.5.55.13 0 .3-.04.4-.11l-.1-.27c-.1.06-.2.09-.28.09-.15 0-.22-.1-.22-.25v-.71h.53v-.28Zm-4.72 1.5v-.94c0-.36-.2-.59-.55-.6a.56.56 0 0 0-.51.27.53.53 0 0 0-.48-.26.49.49 0 0 0-.44.21v-.18h-.29v1.5h.3v-.86c0-.26.15-.4.36-.4s.33.14.33.4v.85h.3v-.85c0-.26.15-.4.36-.4s.33.14.33.4v.85h.3Z"
            clip-rule="evenodd" />
    </g>
    <mask id="b" width="18" height="15" x="9" y="1" maskUnits="userSpaceOnUse"
        style="mask-type:luminance">
        <path fill="#fff" fill-rule="evenodd" d="M9 15.52h17.61V1.42H9v14.1Z" clip-rule="evenodd" />
    </mask>
    <g fill-rule="evenodd" clip-rule="evenodd" mask="url(#b)">
        <path fill="#FF5F00" d="M15.19 11.43h5.24V2.6h-5.24v8.82Z" />
        <path fill="#EB001B"
            d="M15.73 7.02c0-1.79.81-3.38 2.08-4.4a5.32 5.32 0 0 0-3.37-1.2c-3 0-5.44 2.5-5.44 5.6 0 3.1 2.44 5.6 5.44 5.6 1.27 0 2.44-.44 3.37-1.2a5.66 5.66 0 0 1-2.08-4.4Z" />
        <path fill="#F79E1B"
            d="M26.44 10.55v-.27h-.05l-.07.18-.06-.18h-.05v.27h.03v-.2l.06.17h.04l.06-.18v.2h.04Zm-.35 0v-.23h.07v-.04h-.18v.04h.07v.23h.04ZM26.61 7.02c0 3.1-2.43 5.6-5.44 5.6a5.32 5.32 0 0 1-3.36-1.2 5.66 5.66 0 0 0 2.08-4.4c0-1.79-.82-3.38-2.08-4.4.92-.76 2.09-1.2 3.36-1.2 3 0 5.44 2.5 5.44 5.6Z" />
    </g>
</svg>
